findly-builder/apps/searchassist/src/assets/icons/resultTemplate/ratings.svg

<svg width="62" height="13" viewBox="0 0 62 13" fill="none" xmlns="http://www.w3.org/2000/svg">
<path d="M0.350278 3.524L3.39589 3.19306L4.63982 0.239914C4.77456 -0.0799714 5.22785 -0.0799714 5.36259 0.239914L6.60652 3.19306L9.64976 3.524C9.9823 3.56016 10.1198 3.96933 9.87657 4.19897L7.58687 6.3608L8.23179 9.53026C8.30004 9.86569 7.93585 10.1214 7.64352 9.94335L5.00121 8.33374L2.35636 9.94344C2.0639 10.1214 1.69977 9.86544 1.76828 9.53L2.41555 6.3608L0.123582 4.19911C-0.119844 3.96953 0.0176209 3.56014 0.350278 3.524Z" fill="#F5B24D"/>
<path d="M13.3503 3.524L16.3959 3.19306L17.6398 0.239914C17.7746 -0.0799714 18.2278 -0.0799714 18.3626 0.239914L19.6065 3.19306L22.6498 3.524C22.9823 3.56016 23.1198 3.96933 22.8766 4.19897L20.5869 6.3608L21.2318 9.53026C21.3 9.86569 20.9359 10.1214 20.6435 9.94335L18.0012 8.33374L15.3564 9.94344C15.0639 10.1214 14.6998 9.86544 14.7683 9.53L15.4155 6.3608L13.1236 4.19911C12.8802 3.96953 13.0176 3.56014 13.3503 3.524Z" fill="#F5B24D"/>
<path d="M26.3503 3.524L29.3959 3.19306L30.6398 0.239914C30.7746 -0.0799714 31.2278 -0.0799714 31.3626 0.239914L32.6065 3.19306L35.6498 3.524C35.9823 3.56016 36.1198 3.96933 35.8766 4.19897L33.5869 6.3608L34.2318 9.53026C34.3 9.86569 33.9359 10.1214 33.6435 9.94335L31.0012 8.33374L28.3564 9.94344C28.0639 10.1214 27.6998 9.86544 27.7683 9.53L28.4155 6.3608L26.1236 4.19911C25.8802 3.96953 26.0176 3.56014 26.3503 3.524Z" fill="#F5B24D"/>
<path d="M39.3503 3.524L42.3959 3.19306L43.6398 0.239914C43.7746 -0.0799714 44.2278 -0.0799714 44.3626 0.239914L45.6065 3.19306L48.6498 3.524C48.9823 3.56016 49.1198 3.96933 48.8766 4.19897L46.5869 6.3608L47.2318 9.53026C47.3 9.86569 46.9359 10.1214 46.6435 9.94335L44.0012 8.33374L41.3564 9.94344C41.0639 10.1214 40.6998 9.86544 40.7683 9.53L41.4155 6.3608L39.1236 4.19911C38.8802 3.96953 39.0176 3.56014 39.3503 3.524Z" fill="#F5B24D"/>
<path d="M57.3626 0.239923C57.2278 -0.0799403 56.7745 -0.0799872 56.6397 0.239859C56.1537 1.39293 55.3958 3.19271 55.3958 3.19271L52.3506 3.52352C52.0176 3.55969 51.88 3.96935 52.1237 4.1991L54.4153 6.35997L53.7682 9.52796C53.6996 9.86363 54.0641 10.1198 54.3568 9.94168L57.0012 8.33262L59.6431 9.94159C59.9357 10.1198 60.3002 9.86388 60.2319 9.52822L59.5871 6.35997L61.8765 4.19896C62.1199 3.96916 61.9823 3.55971 61.6494 3.52352L58.6067 3.19271L57.3626 0.239923ZM57.0012 1.40078L58.0644 3.92173L60.7238 4.20966L58.7323 6.09042L59.2838 8.80434L57.0012 7.41368L54.7156 8.80434L55.2701 6.09042L53.2817 4.20966L55.9381 3.92173L57.0012 1.40078Z" fill="#F5B24D"/>
</svg>

<svg width="62" height="13" fill="none" xmlns="http://www.w3.org/2000/svg"><path d="m.35 3.524 3.046-.33L4.64.24a.392.392 0 0 1 .723 0l1.244 2.953 3.043.331c.332.036.47.445.227.675l-2.29 2.162.645 3.17a.392.392 0 0 1-.588.412L5 8.333l-2.645 1.61a.392.392 0 0 1-.588-.413l.648-3.17L.124 4.2a.392.392 0 0 1 .226-.676Zm13 0 3.046-.33L17.64.24a.392.392 0 0 1 .723 0l1.244 2.953 3.043.331c.332.036.47.445.227.675l-2.29 2.162.645 3.17a.392.392 0 0 1-.588.412L18 8.333l-2.645 1.61a.392.392 0 0 1-.588-.413l.647-3.17-2.291-2.16a.392.392 0 0 1 .226-.676Zm13 0 3.046-.33L30.64.24a.392.392 0 0 1 .723 0l1.243 2.953 3.044.331c.332.036.47.445.227.675l-2.29 2.162.645 3.17a.392.392 0 0 1-.588.412L31 8.333l-2.645 1.61a.392.392 0 0 1-.588-.413l.648-3.17-2.292-2.16a.392.392 0 0 1 .226-.676Zm13 0 3.046-.33L43.64.24a.392.392 0 0 1 .723 0l1.243 2.953 3.044.331c.332.036.47.445.227.675l-2.29 2.162.645 3.17a.392.392 0 0 1-.588.412L44 8.333l-2.645 1.61a.392.392 0 0 1-.588-.413l.648-3.17-2.292-2.16a.392.392 0 0 1 .226-.676ZM57.363.24a.392.392 0 0 0-.723 0l-1.244 2.953-3.045.33a.392.392 0 0 0-.227.676l2.291 2.161-.647 3.168a.392.392 0 0 0 .589.414L57 8.332l2.642 1.61a.392.392 0 0 0 .589-.414l-.645-3.168 2.29-2.161a.392.392 0 0 0-.228-.675l-3.042-.331L57.363.24ZM57 1.4l1.063 2.522 2.66.288-1.992 1.88.552 2.714L57 7.414l-2.285 1.39.554-2.714-1.988-1.88 2.656-.288L57.001 1.4Z" fill="#F5B24D"/></svg>
